X: 127
T:PASSEPIED de LANFAINS
M:6/8
L:1/8
Q:1/4=60
Z:Yves BELOTTEAU
K:G
|Gd/2cB/2 A/2B/2A/2G/2F/2G/2|Ad/2cB/2 A3/2G3/2|Gd/2cB/2 A/2B/2A/2G/2F/2G
/2|Ad/2cB/2 A3/2G3/2|
G/2A/2B/2cc/2 c/2d/2c/2BB/2|B/2c/2B/2AA/2 A/2G/2A/2B3/2|G/2A/2B/2cc/2 c/
2d/2c/2BB/2|B/2c/2B/2AA/2 A/2G/2A/2B3/2|
A/2B/2A/2G3/2|
W:
W: From "Falaleiro" http://home.t-online.de/home/pheld/homepage.htm
